X:1
T:Egerlaendischer Landla
C:traditionell
A:Egerland
%%textfont Helvetica-Narrow 10pt
%%begintext align
B:"Alt-Egerlaender Taenze", E. Baumann
S:sammlung Rittersberg
%%endtext 
F:http://simonwascher.info 
Z:abc transcription Simon Wascher
M:3/4
L:1/4
K:D
A/G/ |\
F/A/d/A/e/A/ | A/f/f/A/g/f/ | fe/d/c/e/ | d/c/d/B/A/G/ |\
F/A/d/A/e/A/ | A/f/f/A/g/f/ | fe/d/c/e/ | dD :|
|: g/f/ |\
fe/d/c/e/ | d/c/d/A/g/f/ | fe/d/c/e/ | d/c/d/B/A/G/ |\
F/A/d/A/e/A/ | A/f/f/A/g/f/ | fe/d/c/e/ | dD :|
K:G
|: d/c/ |\
B/d/g/d/a/d/ | d/b/b/d/c'/b/ | ba/g/f/a/ | g/f/g/e/d/c/ |\
B/d/g/d/a/d/ | d/b/b/d/c'/b/ | ba/g/f/a/ | gG :|
|: c'/b/ |\
ba/g/f/a/ | g/f/g/d/c'/b/ | ba/g/f/a/ | g/f/g/e/d/c/ |\
B/d/g/d/a/d/ | d/b/b/d/c'/b/ | ba/g/f/a/ | gG :|
%%wordsfont Times-Italic 11pt
W:aus Simon Waschers TradArchiv
